src/assets/icon/settings.svg

<svg width="28" height="28" viewBox="0 0 28 28" fill="none" xmlns="http://www.w3.org/2000/svg">
<mask id="mask0_408_13863" style="mask-type:alpha" maskUnits="userSpaceOnUse" x="0" y="0" width="28" height="28">
<rect width="28" height="28" fill="#D9D9D9"/>
</mask>
<g mask="url(#mask0_408_13863)">
<path d="M12.7076 25.0832C12.3098 25.0832 11.9662 24.9511 11.6769 24.6871C11.3873 24.4232 11.2112 24.0983 11.1484 23.7123L10.8634 21.5292C10.5509 21.4246 10.2305 21.2781 9.90208 21.0897C9.57386 20.9011 9.28035 20.6991 9.02154 20.4839L7 21.3431C6.63347 21.5047 6.26519 21.5204 5.89517 21.3901C5.52494 21.26 5.23736 21.0238 5.03242 20.6813L3.71758 18.4017C3.51264 18.0593 3.45363 17.6969 3.54054 17.3146C3.62726 16.9325 3.82618 16.6174 4.13729 16.369L5.88496 15.0565C5.85813 14.8831 5.83907 14.7089 5.82779 14.5339C5.81651 14.3589 5.81088 14.1846 5.81088 14.0109C5.81088 13.8451 5.81651 13.6765 5.82779 13.5052C5.83907 13.3339 5.85813 13.1465 5.88496 12.9431L4.13729 11.6306C3.82618 11.3823 3.62911 11.0652 3.54608 10.6792C3.46306 10.2934 3.52401 9.92924 3.72896 9.58663L5.03242 7.3408C5.23736 7.00577 5.52494 6.77137 5.89517 6.63759C6.26519 6.50362 6.63347 6.51742 7 6.679L9.01017 7.52717C9.29153 7.30434 9.59185 7.10056 9.91113 6.91584C10.2304 6.73112 10.5441 6.58266 10.8523 6.47046L11.1484 4.28734C11.2112 3.90137 11.3873 3.57645 11.6769 3.31259C11.9662 3.04853 12.3098 2.9165 12.7076 2.9165H15.2924C15.6902 2.9165 16.0338 3.04853 16.3231 3.31259C16.6127 3.57645 16.7888 3.90137 16.8516 4.28734L17.1366 6.48155C17.4866 6.60871 17.8032 6.75717 18.0865 6.92692C18.37 7.09667 18.6562 7.29675 18.9449 7.52717L21.0114 6.679C21.3777 6.51742 21.746 6.50362 22.1162 6.63759C22.4864 6.77137 22.7739 7.00577 22.9787 7.3408L24.2824 9.59801C24.4874 9.94042 24.5464 10.3028 24.4595 10.685C24.3727 11.0671 24.1738 11.3823 23.8627 11.6306L22.0701 12.9767C22.1119 13.1651 22.1348 13.3413 22.1387 13.5052C22.1424 13.6689 22.1442 13.8338 22.1442 13.9998C22.1442 14.1583 22.1404 14.3195 22.1328 14.4834C22.1254 14.6471 22.0986 14.8345 22.0523 15.0455L23.8111 16.369C24.1222 16.6174 24.3231 16.9325 24.4137 17.3146C24.5041 17.6969 24.4468 18.0593 24.2419 18.4017L22.9203 20.67C22.7156 21.0126 22.4262 21.2489 22.0523 21.379C21.6784 21.5091 21.3082 21.4933 20.9417 21.3318L18.9449 20.4725C18.6562 20.7029 18.3615 20.9067 18.0609 21.0838C17.7603 21.2612 17.4522 21.4059 17.1366 21.5181L16.8516 23.7123C16.7888 24.0983 16.6127 24.4232 16.3231 24.6871C16.0338 24.9511 15.6902 25.0832 15.2924 25.0832H12.7076ZM12.8333 23.3332H15.1264L15.5458 20.208C16.1412 20.0524 16.6853 19.8314 17.178 19.545C17.6709 19.2584 18.1462 18.89 18.604 18.4399L21.5025 19.6582L22.6514 17.6748L20.1206 15.7679C20.2178 15.4658 20.284 15.1695 20.319 14.8792C20.3542 14.5891 20.3717 14.296 20.3717 13.9998C20.3717 13.6961 20.3542 13.403 20.319 13.1205C20.284 12.8377 20.2178 12.549 20.1206 12.2542L22.6736 10.3248L21.525 8.3415L18.5926 9.57759C18.2021 9.16031 17.7344 8.79164 17.1894 8.47159C16.6442 8.15153 16.0926 7.92491 15.5347 7.79171L15.1667 4.6665H12.8514L12.4652 7.78063C11.8701 7.92121 11.3205 8.13656 10.8165 8.42667C10.3123 8.71698 9.83131 9.09089 9.37358 9.54842L6.475 8.3415L5.32642 10.3248L7.84583 12.2026C7.74861 12.4795 7.68056 12.7674 7.64167 13.0665C7.60278 13.3656 7.58333 13.6804 7.58333 14.0109C7.58333 14.3146 7.60278 14.6123 7.64167 14.904C7.68056 15.1957 7.74492 15.4836 7.83475 15.7679L5.32642 17.6748L6.475 19.6582L9.3625 18.4332C9.80525 18.8878 10.2786 19.2602 10.7826 19.5505C11.2868 19.8407 11.844 20.0635 12.4542 20.219L12.8333 23.3332ZM14.0134 17.4998C14.9841 17.4998 15.8101 17.1592 16.4914 16.4778C17.1727 15.7965 17.5134 14.9705 17.5134 13.9998C17.5134 13.0292 17.1727 12.2032 16.4914 11.5218C15.8101 10.8405 14.9841 10.4998 14.0134 10.4998C13.0307 10.4998 12.2017 10.8405 11.5264 11.5218C10.8511 12.2032 10.5134 13.0292 10.5134 13.9998C10.5134 14.9705 10.8511 15.7965 11.5264 16.4778C12.2017 17.1592 13.0307 17.4998 14.0134 17.4998Z" fill="black"/>
</g>
</svg>

<svg xmlns="http://www.w3.org/2000/svg" width="28" height="28" fill="none" xmlns:v="https://vecta.io/nano"><mask id="A" maskUnits="userSpaceOnUse" x="0" y="0" width="28" height="28" mask-type="alpha"><path fill="#d9d9d9" d="M0 0h28v28H0z"/></mask><g mask="url(#A)"><path d="M12.708 25.083c-.398 0-.741-.132-1.031-.396a1.64 1.64 0 0 1-.528-.975l-.285-2.183c-.312-.105-.633-.251-.961-.439s-.622-.391-.881-.606L7 21.343a1.45 1.45 0 0 1-1.105.047c-.37-.13-.658-.366-.863-.709l-1.315-2.28c-.205-.342-.264-.705-.177-1.087s.286-.697.597-.946l1.748-1.312-.057-.523-.017-.523.017-.506.057-.562-1.748-1.312a1.62 1.62 0 0 1-.591-.951 1.46 1.46 0 0 1 .183-1.093l1.303-2.246c.205-.335.493-.569.863-.703s.738-.12 1.105.041l2.01.848a7.49 7.49 0 0 1 .901-.611 5.95 5.95 0 0 1 .941-.445l.296-2.183a1.64 1.64 0 0 1 .528-.975c.289-.264.633-.396 1.031-.396h2.585c.398 0 .741.132 1.031.396a1.64 1.64 0 0 1 .529.975l.285 2.194c.35.127.667.276.95.445s.57.37.858.6l2.066-.848c.366-.162.735-.175 1.105-.041s.658.368.863.703l1.304 2.257c.205.342.264.705.177 1.087s-.286.697-.597.946l-1.793 1.346a2.75 2.75 0 0 1 .069.529l.006.495-.011.484a3.37 3.37 0 0 1-.081.562l1.759 1.323c.311.248.512.564.603.946a1.41 1.41 0 0 1-.172 1.087L22.92 20.67a1.59 1.59 0 0 1-.868.709c-.374.13-.744.114-1.111-.047l-1.997-.859c-.289.23-.583.434-.884.611a5.33 5.33 0 0 1-.924.434l-.285 2.194a1.64 1.64 0 0 1-.529.975c-.289.264-.633.396-1.031.396h-2.585zm.126-1.75h2.293l.419-3.125a6.5 6.5 0 0 0 1.632-.663 7.22 7.22 0 0 0 1.426-1.105l2.899 1.218 1.149-1.983-2.531-1.907c.097-.302.163-.598.198-.889s.053-.583.053-.879a7.11 7.11 0 0 0-.053-.879 4.55 4.55 0 0 0-.198-.866l2.553-1.929-1.149-1.983-2.932 1.236c-.39-.417-.858-.786-1.403-1.106s-1.097-.547-1.655-.68l-.368-3.125h-2.315l-.386 3.114a6.09 6.09 0 0 0-1.649.646 6.96 6.96 0 0 0-1.443 1.122L6.475 8.342l-1.149 1.983 2.519 1.878c-.097.277-.165.565-.204.864s-.058.614-.058.944a6.75 6.75 0 0 0 .058.893 5.1 5.1 0 0 0 .193.864l-2.508 1.907 1.149 1.983 2.888-1.225c.443.455.916.827 1.42 1.117a6.6 6.6 0 0 0 1.672.669l.379 3.114zm1.18-5.833a3.37 3.37 0 0 0 2.478-1.022c.681-.681 1.022-1.507 1.022-2.478s-.341-1.797-1.022-2.478-1.507-1.022-2.478-1.022c-.983 0-1.812.341-2.487 1.022S10.513 13.029 10.513 14s.338 1.797 1.013 2.478 1.504 1.022 2.487 1.022z" fill="#000"/></g></svg>
